static/img/kroki/3542047c9cf993f1deddffc618e0efc4.svg

<?xml version="1.0" encoding="us-ascii" standalone="no"?><svg xmlns="http://www.w3.org/2000/svg" xmlns:xlink="http://www.w3.org/1999/xlink" contentStyleType="text/css" height="732px" preserveAspectRatio="none" style="width:269px;height:732px;" version="1.1" viewBox="0 0 269 732" width="269px" zoomAndPan="magnify"><defs/><g><!--class kubernetes_resource--><g id="elem_kubernetes_resource"><rect codeLine="22" fill="#3D176E" height="126.6797" id="kubernetes_resource" rx="2.5" ry="2.5" style="stroke:#000D19;stroke-width:0.5;" width="239" x="15" y="438.76"/><ellipse cx="40.35" cy="458.6545" fill="#ADD1B2" rx="11" ry="11" style="stroke:#181818;stroke-width:1.0;"/><path d="M43.3188,464.2952 Q42.7406,464.592 42.1,464.7327 Q41.4594,464.8889 40.7563,464.8889 Q38.2563,464.8889 36.9281,463.2483 Q35.6156,461.592 35.6156,458.467 Q35.6156,455.342 36.9281,453.6858 Q38.2563,452.0295 40.7563,452.0295 Q41.4594,452.0295 42.1,452.1858 Q42.7563,452.342 43.3188,452.6389 L43.3188,455.3577 Q42.6938,454.7795 42.1,454.5139 Q41.5063,454.2327 40.8813,454.2327 Q39.5375,454.2327 38.85,455.3108 Q38.1625,456.3733 38.1625,458.467 Q38.1625,460.5608 38.85,461.6389 Q39.5375,462.7014 40.8813,462.7014 Q41.5063,462.7014 42.1,462.4358 Q42.6938,462.1545 43.3188,461.5764 L43.3188,464.2952 Z " fill="#000000"/><text fill="#D9B8FF" font-family="Helvetica" font-size="17" lengthAdjust="spacing" textLength="174" x="61.65" y="464.5398">kubernetes_resource</text><line style="stroke:#000D19;stroke-width:0.5;" x1="16" x2="253" y1="478.5491" y2="478.5491"/><text fill="#D9B8FF" font-family="sans-serif" font-size="14" font-weight="bold" lengthAdjust="spacing" textLength="46" x="26" y="500.5442">labels</text><text fill="#D9B8FF" font-family="sans-serif" font-size="14" lengthAdjust="spacing" textLength="171" x="72" y="500.5442">: dictionary[string, string]</text><text fill="#D9B8FF" font-family="sans-serif" font-size="14" font-weight="bold" lengthAdjust="spacing" textLength="90" x="26" y="526.8411">namespace</text><text fill="#D9B8FF" font-family="sans-serif" font-size="14" lengthAdjust="spacing" textLength="48" x="116" y="526.8411">: string</text><text fill="#D9B8FF" font-family="sans-serif" font-size="14" font-weight="bold" lengthAdjust="spacing" textLength="138" x="26" y="553.1379">resource_version</text><text fill="#D9B8FF" font-family="sans-serif" font-size="14" lengthAdjust="spacing" textLength="48" x="164" y="553.1379">: string</text></g><!--class kubernetes_storage_class--><g id="elem_kubernetes_storage_class"><rect codeLine="27" fill="#3D176E" height="39.7891" id="kubernetes_storage_class" rx="2.5" ry="2.5" style="stroke:#000D19;stroke-width:0.5;" width="255" x="7" y="686.44"/><ellipse cx="22" cy="706.3345" fill="#ADD1B2" rx="11" ry="11" style="stroke:#181818;stroke-width:1.0;"/><path d="M24.9688,711.9752 Q24.3906,712.272 23.75,712.4127 Q23.1094,712.5689 22.4063,712.5689 Q19.9063,712.5689 18.5781,710.9283 Q17.2656,709.272 17.2656,706.147 Q17.2656,703.022 18.5781,701.3658 Q19.9063,699.7095 22.4063,699.7095 Q23.1094,699.7095 23.75,699.8658 Q24.4063,700.022 24.9688,700.3189 L24.9688,703.0377 Q24.3438,702.4595 23.75,702.1939 Q23.1563,701.9127 22.5313,701.9127 Q21.1875,701.9127 20.5,702.9908 Q19.8125,704.0533 19.8125,706.147 Q19.8125,708.2408 20.5,709.3189 Q21.1875,710.3814 22.5313,710.3814 Q23.1563,710.3814 23.75,710.1158 Q24.3438,709.8345 24.9688,709.2564 L24.9688,711.9752 Z " fill="#000000"/><text fill="#D9B8FF" font-family="Helvetica" font-size="17" lengthAdjust="spacing" textLength="213" x="41" y="712.2198">kubernetes_storage_class</text></g><!--class resource--><g id="elem_resource"><rect codeLine="29" fill="#3D176E" height="310.7578" id="resource" rx="2.5" ry="2.5" style="stroke:#000D19;stroke-width:0.5;" width="227" x="21" y="7"/><ellipse cx="89.75" cy="26.8945" fill="#ADD1B2" rx="11" ry="11" style="stroke:#181818;stroke-width:1.0;"/><path d="M92.7188,32.5352 Q92.1406,32.832 91.5,32.9727 Q90.8594,33.1289 90.1563,33.1289 Q87.6563,33.1289 86.3281,31.4883 Q85.0156,29.832 85.0156,26.707 Q85.0156,23.582 86.3281,21.9258 Q87.6563,20.2695 90.1563,20.2695 Q90.8594,20.2695 91.5,20.4258 Q92.1563,20.582 92.7188,20.8789 L92.7188,23.5977 Q92.0938,23.0195 91.5,22.7539 Q90.9063,22.4727 90.2813,22.4727 Q88.9375,22.4727 88.25,23.5508 Q87.5625,24.6133 87.5625,26.707 Q87.5625,28.8008 88.25,29.8789 Q88.9375,30.9414 90.2813,30.9414 Q90.9063,30.9414 91.5,30.6758 Q92.0938,30.3945 92.7188,29.8164 L92.7188,32.5352 Z " fill="#000000"/><text fill="#D9B8FF" font-family="Helvetica" font-size="17" lengthAdjust="spacing" textLength="71" x="115.25" y="32.7798">resource</text><line style="stroke:#000D19;stroke-width:0.5;" x1="22" x2="247" y1="46.7891" y2="46.7891"/><text fill="#D9B8FF" font-family="sans-serif" font-size="14" font-weight="bold" lengthAdjust="spacing" textLength="29" x="32" y="68.7842">age</text><text fill="#D9B8FF" font-family="sans-serif" font-size="14" lengthAdjust="spacing" textLength="66" x="61" y="68.7842">: duration</text><text fill="#D9B8FF" font-family="sans-serif" font-size="14" font-weight="bold" lengthAdjust="spacing" textLength="43" x="32" y="95.0811">atime</text><text fill="#D9B8FF" font-family="sans-serif" font-size="14" lengthAdjust="spacing" textLength="70" x="75" y="95.0811">: datetime</text><text fill="#D9B8FF" font-family="sans-serif" font-size="14" font-weight="bold" lengthAdjust="spacing" textLength="43" x="32" y="121.3779">ctime</text><text fill="#D9B8FF" font-family="sans-serif" font-size="14" lengthAdjust="spacing" textLength="70" x="75" y="121.3779">: datetime</text><text fill="#D9B8FF" font-family="sans-serif" font-size="14" font-weight="bold" lengthAdjust="spacing" textLength="14" x="32" y="147.6748">id</text><text fill="#D9B8FF" font-family="sans-serif" font-size="14" lengthAdjust="spacing" textLength="48" x="46" y="147.6748">: string</text><text fill="#D9B8FF" font-family="sans-serif" font-size="14" font-weight="bold" lengthAdjust="spacing" textLength="33" x="32" y="173.9717">kind</text><text fill="#D9B8FF" font-family="sans-serif" font-size="14" lengthAdjust="spacing" textLength="48" x="65" y="173.9717">: string</text><text fill="#D9B8FF" font-family="sans-serif" font-size="14" font-weight="bold" lengthAdjust="spacing" textLength="90" x="32" y="200.2686">last_access</text><text fill="#D9B8FF" font-family="sans-serif" font-size="14" lengthAdjust="spacing" textLength="66" x="122" y="200.2686">: duration</text><text fill="#D9B8FF" font-family="sans-serif" font-size="14" font-weight="bold" lengthAdjust="spacing" textLength="90" x="32" y="226.5654">last_update</text><text fill="#D9B8FF" font-family="sans-serif" font-size="14" lengthAdjust="spacing" textLength="66" x="122" y="226.5654">: duration</text><text fill="#D9B8FF" font-family="sans-serif" font-size="14" font-weight="bold" lengthAdjust="spacing" textLength="48" x="32" y="252.8623">mtime</text><text fill="#D9B8FF" font-family="sans-serif" font-size="14" lengthAdjust="spacing" textLength="70" x="80" y="252.8623">: datetime</text><text fill="#D9B8FF" font-family="sans-serif" font-size="14" font-weight="bold" lengthAdjust="spacing" textLength="43" x="32" y="279.1592">name</text><text fill="#D9B8FF" font-family="sans-serif" font-size="14" lengthAdjust="spacing" textLength="48" x="75" y="279.1592">: string</text><text fill="#D9B8FF" font-family="sans-serif" font-size="14" font-weight="bold" lengthAdjust="spacing" textLength="34" x="32" y="305.4561">tags</text><text fill="#D9B8FF" font-family="sans-serif" font-size="14" lengthAdjust="spacing" textLength="171" x="66" y="305.4561">: dictionary[string, string]</text></g><!--reverse link resource to kubernetes_resource--><g id="link_resource_kubernetes_resource"><path codeLine="41" d="M134.5,335.91 C134.5,378.46 134.5,404.24 134.5,438.32 " fill="none" id="resource-backto-kubernetes_resource" style="stroke:#FFAF37;stroke-width:2.0;"/><polygon fill="none" points="134.5,317.91,128.5,335.91,140.5,335.91,134.5,317.91" style="stroke:#FFAF37;stroke-width:2.0;"/></g><!--reverse link kubernetes_resource to kubernetes_storage_class--><g id="link_kubernetes_resource_kubernetes_storage_class"><path codeLine="42" d="M134.5,583.7 C134.5,625.23 134.5,658.95 134.5,686.31 " fill="none" id="kubernetes_resource-backto-kubernetes_storage_class" style="stroke:#FFAF37;stroke-width:2.0;"/><polygon fill="none" points="134.5,565.7,128.5,583.7,140.5,583.7,134.5,565.7" style="stroke:#FFAF37;stroke-width:2.0;"/></g><!--SRC=[XPDDIyD048Rl-HKBteg5rgAruaKBefSYwasaJ7OdwT9aDynEbFhntzrjRCbNxIdXVP_Cl3ExMMc50lE2DoB7F4PoaLjhKm11Bcw8xCVSPfR4IP90CfcspJjh-2YmW1p5FMRlo5f2ctXPQRasw9mugrct8DSfsTAegZmJ6ESjD5oZvXauTyDCEYuPQs7KBBvCaZRPBdeoKUFf1NOmImhf3ncDHceyQoD7M_qxzvvurfyenlMbBInZ9sQdnPRwDsKWQY4xW-xyWnaVGIbjKd5UqvwgJ6IG6lhp2fJz27G2cQktSOo4bZS5pZjJuUnI9TDU-E4GBCFcnBhq5zKWeriIEbkIHF4L3GOPn9YvmU1AA2rPMmEqUNN-TfZqL5JFDuyPFxE_In83MSbUtLLQllkVm7zRCt-wVHrRWXINbV6rHnfvFB0DKnA4D45XdLSQC8PthyaUJQj6Dh-Yfk1xyHAazBzDgyFMAOjGg-NaFNt2AXg56T9Z2_o9zaDUVm-7mxxZYFgEg4CtblWB]--></g></svg>

<svg xmlns="http://www.w3.org/2000/svg" width="269" height="732" viewBox="0 0 269 732"><rect width="239" height="126.68" x="15" y="438.76" fill="#3D176E" rx="2.5" ry="2.5" style="stroke:#000d19;stroke-width:.5"/><circle cx="40.35" cy="458.654" r="11" fill="#ADD1B2" style="stroke:#181818;stroke-width:1"/><path d="M43.319 464.295q-.578.297-1.219.438-.64.156-1.344.156-2.5 0-3.828-1.64-1.312-1.657-1.312-4.782t1.312-4.781q1.328-1.656 3.828-1.656.703 0 1.344.156.656.156 1.219.453v2.719q-.625-.579-1.219-.844-.594-.281-1.219-.281-1.343 0-2.031 1.078-.687 1.062-.687 3.156t.687 3.172q.688 1.062 2.031 1.062.625 0 1.219-.265.594-.281 1.219-.86z"/><text x="61.65" y="464.54" fill="#D9B8FF" font-family="Helvetica" font-size="17" textLength="174">kubernetes_resource</text><path d="M16 478.549h237" style="stroke:#000d19;stroke-width:.5"/><text x="26" y="500.544" fill="#D9B8FF" font-family="sans-serif" font-size="14" font-weight="bold" textLength="46">labels</text><text x="72" y="500.544" fill="#D9B8FF" font-family="sans-serif" font-size="14" textLength="171">: dictionary[string, string]</text><text x="26" y="526.841" fill="#D9B8FF" font-family="sans-serif" font-size="14" font-weight="bold" textLength="90">namespace</text><text x="116" y="526.841" fill="#D9B8FF" font-family="sans-serif" font-size="14" textLength="48">: string</text><text x="26" y="553.138" fill="#D9B8FF" font-family="sans-serif" font-size="14" font-weight="bold" textLength="138">resource_version</text><text x="164" y="553.138" fill="#D9B8FF" font-family="sans-serif" font-size="14" textLength="48">: string</text><rect width="255" height="39.789" x="7" y="686.44" fill="#3D176E" rx="2.5" ry="2.5" style="stroke:#000d19;stroke-width:.5"/><circle cx="22" cy="706.335" r="11" fill="#ADD1B2" style="stroke:#181818;stroke-width:1"/><path d="M24.969 711.975q-.578.297-1.219.438-.64.156-1.344.156-2.5 0-3.828-1.64-1.312-1.657-1.312-4.782t1.312-4.781q1.328-1.656 3.828-1.656.703 0 1.344.156.656.156 1.219.453v2.719q-.625-.578-1.219-.844-.594-.281-1.219-.281-1.343 0-2.031 1.078-.687 1.062-.687 3.156t.687 3.172q.688 1.062 2.031 1.062.625 0 1.219-.265.594-.281 1.219-.86z"/><text x="41" y="712.22" fill="#D9B8FF" font-family="Helvetica" font-size="17" textLength="213">kubernetes_storage_class</text><rect width="227" height="310.758" x="21" y="7" fill="#3D176E" rx="2.5" ry="2.5" style="stroke:#000d19;stroke-width:.5"/><circle cx="89.75" cy="26.895" r="11" fill="#ADD1B2" style="stroke:#181818;stroke-width:1"/><path d="M92.719 32.535q-.578.297-1.219.438-.64.156-1.344.156-2.5 0-3.828-1.64-1.312-1.657-1.312-4.782t1.312-4.781q1.328-1.656 3.828-1.656.703 0 1.344.156.656.156 1.219.453v2.719q-.625-.578-1.219-.844-.594-.281-1.219-.281-1.344 0-2.031 1.078-.687 1.062-.687 3.156t.687 3.172q.688 1.062 2.031 1.062.625 0 1.219-.265.594-.281 1.219-.86z"/><text x="115.25" y="32.78" fill="#D9B8FF" font-family="Helvetica" font-size="17" textLength="71">resource</text><path d="M22 46.789h225" style="stroke:#000d19;stroke-width:.5"/><text x="32" y="68.784" fill="#D9B8FF" font-family="sans-serif" font-size="14" font-weight="bold" textLength="29">age</text><text x="61" y="68.784" fill="#D9B8FF" font-family="sans-serif" font-size="14" textLength="66">: duration</text><text x="32" y="95.081" fill="#D9B8FF" font-family="sans-serif" font-size="14" font-weight="bold" textLength="43">atime</text><text x="75" y="95.081" fill="#D9B8FF" font-family="sans-serif" font-size="14" textLength="70">: datetime</text><text x="32" y="121.378" fill="#D9B8FF" font-family="sans-serif" font-size="14" font-weight="bold" textLength="43">ctime</text><text x="75" y="121.378" fill="#D9B8FF" font-family="sans-serif" font-size="14" textLength="70">: datetime</text><text x="32" y="147.675" fill="#D9B8FF" font-family="sans-serif" font-size="14" font-weight="bold" textLength="14">id</text><text x="46" y="147.675" fill="#D9B8FF" font-family="sans-serif" font-size="14" textLength="48">: string</text><text x="32" y="173.972" fill="#D9B8FF" font-family="sans-serif" font-size="14" font-weight="bold" textLength="33">kind</text><text x="65" y="173.972" fill="#D9B8FF" font-family="sans-serif" font-size="14" textLength="48">: string</text><text x="32" y="200.269" fill="#D9B8FF" font-family="sans-serif" font-size="14" font-weight="bold" textLength="90">last_access</text><text x="122" y="200.269" fill="#D9B8FF" font-family="sans-serif" font-size="14" textLength="66">: duration</text><text x="32" y="226.565" fill="#D9B8FF" font-family="sans-serif" font-size="14" font-weight="bold" textLength="90">last_update</text><text x="122" y="226.565" fill="#D9B8FF" font-family="sans-serif" font-size="14" textLength="66">: duration</text><text x="32" y="252.862" fill="#D9B8FF" font-family="sans-serif" font-size="14" font-weight="bold" textLength="48">mtime</text><text x="80" y="252.862" fill="#D9B8FF" font-family="sans-serif" font-size="14" textLength="70">: datetime</text><text x="32" y="279.159" fill="#D9B8FF" font-family="sans-serif" font-size="14" font-weight="bold" textLength="43">name</text><text x="75" y="279.159" fill="#D9B8FF" font-family="sans-serif" font-size="14" textLength="48">: string</text><text x="32" y="305.456" fill="#D9B8FF" font-family="sans-serif" font-size="14" font-weight="bold" textLength="34">tags</text><text x="66" y="305.456" fill="#D9B8FF" font-family="sans-serif" font-size="14" textLength="171">: dictionary[string, string]</text><path fill="none" d="M134.5 335.91v102.41m0-120.41-6 18h12zm0 265.79v102.61m0-120.61-6 18h12z" style="stroke:#ffaf37;stroke-width:2"/></svg>
